source/images/icons/icon-editorial/voiture.svg

<?xml version="1.0" encoding="UTF-8"?>
<svg width="80px" height="80px" viewBox="0 0 80 80" version="1.1" xmlns="http://www.w3.org/2000/svg" xmlns:xlink="http://www.w3.org/1999/xlink">
    <!-- Generator: Sketch 55.2 (78181) - https://sketchapp.com -->
    <title>Illustrative Icons/Voiture</title>
    <desc>Created with Sketch.</desc>
    <g id="Illustrative-Icons/Voiture" stroke="none" stroke-width="1" fill="none" fill-rule="evenodd">
        <path d="M25,58.6896552 L25,62.4137931 C25,65.4904612 22.4730338,68 19.375,68 C16.2769662,68 13.75,65.4904612 13.75,62.4137931 L13.75,58.6896552 C11.6789322,58.6896552 10,57.0223018 10,54.9655172 L10,38.2068966 C10,36.7313397 10.8641068,35.456214 12.1171916,34.8533712 L15.655246,15.5289605 C15.8173499,14.6435694 16.5938429,14 17.5,14 L62.5,14 C63.3940472,14 64.1637288,14.6268813 64.3387296,15.4975876 L66.2330256,24.9225426 C66.4357212,25.9310414 65.7768109,26.9117752 64.7613085,27.1130727 C63.7458063,27.3143703 62.7582617,26.6600043 62.5555664,25.6515055 L60.9622664,17.7241379 L19.0648208,17.7241379 L15.9966631,34.4820313 L66.25,34.4820313 C66.2750311,34.4820313 66.2999476,34.4825184 66.3247405,34.4834835 C68.3613102,34.5230223 70,36.174911 70,38.2068966 L70,54.9655172 C70,57.0223018 68.3210678,58.6896552 66.25,58.6896552 L66.25,62.4137931 C66.25,65.4904612 63.7230338,68 60.625,68 C57.5269662,68 55,65.4904612 55,62.4137931 L55,58.6896552 L25,58.6896552 Z M17.5,58.6896552 L17.5,62.4137931 C17.5,63.4336768 18.3480338,64.2758621 19.375,64.2758621 C20.4019662,64.2758621 21.25,63.4336768 21.25,62.4137931 L21.25,58.6896552 L17.5,58.6896552 Z M58.75,58.6896552 L58.75,62.4137931 C58.75,63.4336768 59.5980338,64.2758621 60.625,64.2758621 C61.6519662,64.2758621 62.5,63.4336768 62.5,62.4137931 L62.5,58.6896552 L58.75,58.6896552 Z M33.4375,25.1724138 C32.4019662,25.1724138 31.5625,24.338737 31.5625,23.3103448 C31.5625,22.2819526 32.4019662,21.4482759 33.4375,21.4482759 L46.5625,21.4482759 C47.5980338,21.4482759 48.4375,22.2819526 48.4375,23.3103448 C48.4375,24.338737 47.5980338,25.1724138 46.5625,25.1724138 L33.4375,25.1724138 Z M51.25,46.5862069 C51.25,43.5009733 53.7683412,41 56.875,41 C59.9816588,41 62.5,43.5009733 62.5,46.5862069 C62.5,49.6714405 59.9816588,52.1724138 56.875,52.1724138 C53.7683412,52.1724138 51.25,49.6714405 51.25,46.5862069 Z M55,46.5862069 C55,47.6146561 55.8394088,48.4482759 56.875,48.4482759 C57.9105912,48.4482759 58.75,47.6146561 58.75,46.5862069 C58.75,45.5577577 57.9105912,44.7241379 56.875,44.7241379 C55.8394088,44.7241379 55,45.5577577 55,46.5862069 Z M17.5,46.5862069 C17.5,43.5009733 20.0183412,41 23.125,41 C26.2316588,41 28.75,43.5009733 28.75,46.5862069 C28.75,49.6714405 26.2316588,52.1724138 23.125,52.1724138 C20.0183412,52.1724138 17.5,49.6714405 17.5,46.5862069 Z M21.25,46.5862069 C21.25,47.6146561 22.0894088,48.4482759 23.125,48.4482759 C24.1605912,48.4482759 25,47.6146561 25,46.5862069 C25,45.5577577 24.1605912,44.7241379 23.125,44.7241379 C22.0894088,44.7241379 21.25,45.5577577 21.25,46.5862069 Z M65.3125,32.6206897 C64.2769662,32.6206897 63.4375,31.7870129 63.4375,30.7586207 C63.4375,29.7302285 64.2769662,28.8965517 65.3125,28.8965517 C66.3480338,28.8965517 67.1875,29.7302285 67.1875,30.7586207 C67.1875,31.7870129 66.3480338,32.6206897 65.3125,32.6206897 Z M13.75,38.2068966 L13.75,54.9655172 L66.25,54.9655172 L66.25,38.2068966 L13.75,38.2068966 Z" id="Shape" fill="#ADB5BD"></path>
    </g>
</svg>

<svg width="80" height="80">
    <title>
        Illustrative Icons/Voiture
    </title>
    <path d="M25 58.69v3.724C25 65.49 22.473 68 19.375 68s-5.625-2.51-5.625-5.586V58.69c-2.071 0-3.75-1.668-3.75-3.724v-16.76c0-1.475.864-2.75 2.117-3.353l3.538-19.324A1.872 1.872 0 0 1 17.5 14h45c.894 0 1.664.627 1.839 1.498l1.894 9.425a1.863 1.863 0 0 1-1.472 2.19 1.875 1.875 0 0 1-2.205-1.461l-1.594-7.928H19.065l-3.068 16.758H66.25l.075.001c2.036.04 3.675 1.692 3.675 3.724v16.759c0 2.056-1.679 3.724-3.75 3.724v3.724c0 3.076-2.527 5.586-5.625 5.586S55 65.49 55 62.414V58.69H25zm-7.5 0v3.724a1.88 1.88 0 0 0 1.875 1.862 1.88 1.88 0 0 0 1.875-1.862V58.69H17.5zm41.25 0v3.724a1.88 1.88 0 0 0 1.875 1.862 1.88 1.88 0 0 0 1.875-1.862V58.69h-3.75zM33.437 25.172a1.869 1.869 0 0 1-1.874-1.862c0-1.028.839-1.862 1.875-1.862h13.124c1.036 0 1.876.834 1.876 1.862 0 1.029-.84 1.862-1.876 1.862H33.438zM51.25 46.586c0-3.085 2.518-5.586 5.625-5.586s5.625 2.501 5.625 5.586c0 3.085-2.518 5.586-5.625 5.586s-5.625-2.5-5.625-5.586zm3.75 0c0 1.029.84 1.862 1.875 1.862a1.868 1.868 0 0 0 1.875-1.862c0-1.028-.84-1.862-1.875-1.862A1.868 1.868 0 0 0 55 46.586zm-37.5 0c0-3.085 2.518-5.586 5.625-5.586s5.625 2.501 5.625 5.586c0 3.085-2.518 5.586-5.625 5.586s-5.625-2.5-5.625-5.586zm3.75 0c0 1.029.84 1.862 1.875 1.862A1.868 1.868 0 0 0 25 46.586c0-1.028-.84-1.862-1.875-1.862a1.868 1.868 0 0 0-1.875 1.862zm44.063-13.965a1.869 1.869 0 0 1-1.876-1.862c0-1.029.84-1.862 1.876-1.862 1.035 0 1.874.833 1.874 1.862 0 1.028-.839 1.862-1.874 1.862zM13.75 38.207v16.759h52.5v-16.76h-52.5z" fill="#ADB5BD" fill-rule="evenodd"/>
</svg>
